!!!!SEGMENT: pl-cz--iii-37--001-002_bogoimski-tadeusz--aria-andante-regnabit-dominus.krn
!!!cenid: 18xx:680
!!!COM: Bogoimski, Tadeusz
!!!COM-rismID: pe30024244
!!!CDT: ~1800-~1899
!!!CNT:
!!!OTL: Aria - Andante - Regnabit Dominus
!!!PDT: 1839
!!!AGN: Secular; Aria
!!!SMS-siglum: PL-CZ
!!!SMS-shelfmark: III-37
!!!SMS-shelfwork: 002 W
!!!SMS-variant:
!!!SMS-altvar:
!!!NIFC-rismSourceID: 300237592
!!!NIFC-rismChildID: 300237592
!!!NIFC-islandoraID: pl-cz:38069
!!!URL-pdf-islandora: https://repozytorium.nifc.pl/islandora/object/pl-cz%3A38069/datastream/PDF/view
!!!URL-scan:
!!!ONB-nifc: UWAGA: części Arii: Nolite confidere, Regnabit Dominus, Rondo
!!!AIN: 2 clars 1 cor 3 empty 1 flt 1 organ 1 viola 2 violn
!!!key:
**kern	**kern	**dynam	**kern	**dynam	**kern	**dynam	**kern	**dynam	**kern	**text	**kern	**kern	**kern	**kern	**dynam	**kern
*part11	*part10	*part10	*part9	*part9	*part8	*part8	*part7	*part7	*part6	*part6	*part5	*part4	*part3	*part2	*part2	*part1
*	*group3	*	*group3	*	*group3	*	*group3	*	*	*	*group2	*group2	*group1	*group1	*	*group1
*staff11	*staff10	*	*staff9	*	*staff8	*	*staff7	*	*staff6	*staff6	*staff5	*staff4	*staff3	*staff2	*	*staff1
*Iorgan	*Iempty	*	*Iviola	*	*Ivioln	*	*Ivioln	*	*Iempty	*	*Iempty	*Icor	*Iclars	*Iclars	*	*Iflt
*I"Organo	*I"Baſso.	*	*I"Alto Viola.	*	*I"Violino IIdo	*	*I"Violino 1mo	*	*I"Baſs. Solo.	*	*	*I"Corno 1mo et 2do in A.	*I"Clarinetto 2do in A.	*I"Clarinetto 1mo in A.	*	*I"Flauto
*I'org	*I'cb	*	*I'a-vla	*	*I'vl II	*	*I'vl I	*	*I'B	*	*	*I'cor I et II	*I'cl II	*I'cl I	*	*I'fl
*clefF4	*clefF4	*	*clefC3	*	*clefG2	*	*clefG2	*	*clefF4	*	*clefG2	*clefG2	*clefG2	*clefG2	*	*clefG2
*	*ITrd0c0	*	*	*	*	*	*	*	*	*	*ITrd2c3	*ITrd2c3	*ITrd2c3	*ITrd2c3	*	*
*k[f#c#g#]	*k[f#c#g#]	*	*k[c#f#g#]	*	*k[f#c#g#]	*	*k[f#c#g#]	*	*k[f#c#g#]	*	*k[f#c#g#]	*k[f#c#g#]	*k[f#c#g#]	*k[f#c#g#]	*	*k[f#c#g#]
*A:	*A:	*	*A:	*	*A:	*	*A:	*	*A:	*	*A:	*A:	*A:	*A:	*	*A:
*M4/4	*M4/4	*	*M4/4	*	*M4/4	*	*M4/4	*	*M4/4	*	*M4/4	*M4/4	*M4/4	*M4/4	*	*M4/4
*met(c)	*met(c)	*	*met(c)	*	*met(c)	*	*met(c)	*	*met(c)	*	*met(c)	*met(c)	*met(c)	*met(c)	*	*met(c)
*	*	*	*	*	*	*	*^	*	*	*	*	*	*	*	*	*
!	!	!	!	!	!LO:TX:t=P:problem=kolejność znaków ff# cc# g#	!	!	!	!	!	!	!	!	!	!	!	!
!	!	!	!LO:TX:t=P:problem=kolejność znaków c# F# G#	!	!LO:TX:a:t=legat.	!	!LO:TX:t=P:problem=kolejność znaków ff# cc# g#	!	!	!	!	!	!	!	!	!	!LO:TX:t=P:problem=kolejność znaków ff# cc# g#
!LO:TX:a:i:t=Andante	!LO:TX:a:i:t=Andante	!	!LO:TX:a:i:t=Andante.	!	!LO:TX:a:i:t=Andante	!	!LO:TX:a:i:t=Andante	!	!	!LO:TX:a:i:t=Andante.	!	!	!LO:TX:a:i:t=Andande	!LO:TX:a:i:t=Andante	!LO:TX:a:i:t=Andante.	!	!LO:TX:a:B:t=Andant&colon;
4r	4r	.	4r	.	4r	.	8.ee/L	4r	.	4r	.	4r	4r	4r	8.e\L	.	(8.ee\L
!	!	!LO:DY:b	!	!	!	!	!	!	!	!	!	!	!	!	!LO:TX:b:t=dol&colon;	!	!
.	.	p	.	.	.	.	16ccc#/Jk	.	.	.	.	.	.	.	16cc#\Jk	.	16ccc#\Jk)
*	*	*	*	*	*	*	*v	*v	*	*	*	*	*	*	*	*	*
=1	=1	=1	=1	=1	=1	=1	=1	=1	=1	=1	=1	=1	=1	=1	=1	=1
*	*	*	*	*	*	*	*	*	*	*	*	*	*	*2\right	*	*2\right
!	!	!	!	!	!LO:TX:t=P:global:problem=niejednoznaczny zapis łuków [przyjęto łuk na 4 ósemkach]	!	!LO:TX:t=P:global:problem=niejednoznaczny zapis łuków [przyjęto łuk na 4 ósemkach]	!	!	!	!	!	!	!	!	!
!	!	!	!	!LO:DY:b:rj:t=p	!	!LO:DY:b:rj	!	!LO:DY:b:rj	!LO:TX:a:t=4.	!	!	!	!	!	!	!
4AA/	4AA/	.	(8A\L	p	(8A/L	p	(>8c#/L	p	00r	.	8A\	8a\	8A/L	2cc#\	.	2ccc#\
.	.	.	8c#\	.	8e/	.	8e/	.	.	.	8r	8r	8e/	.	.	.
4r	4r	.	8e\	.	8a/	.	8cc#/	.	.	.	8a\	8cc#\	8a/	.	.	.
.	.	.	8c#\J)	.	8e/J)	.	8e/J)	.	.	.	8r	8r	8e/J	.	.	.
4E\	4E\	.	(8B\L	.	(8B/L	.	(8b/L	.	.	.	8E/	8e\	8g#\L	8b\L	.	8bb\L
.	.	.	8d\	.	8e/	.	8e/	.	.	.	8r	8r	8e\	(16dd\L	.	(16ddd\L
.	.	.	.	.	.	.	.	.	.	.	.	.	.	16cc#\JJ	.	16ccc#\JJ)
4r	4r	.	8e\	.	8g#/	.	8d/	.	.	.	8e/	8b\	8g#\	8ee\L	.	8eee\L
.	.	.	8d\J)	.	8e/J)	.	8e/J)	.	.	.	8r	8r	8e\J	16dd\L)	.	(16ddd\L
.	.	.	.	.	.	.	.	.	.	.	.	.	.	16b\JJ	.	16bb\JJ)
=2	=2	=2	=2	=2	=2	=2	=2	=2	=2	=2	=2	=2	=2	=2	=2	=2
!	!	!	!	!	!	!	!	!	!	!	!	!	!	!	!	!LO:TX:t=P:problem=niejednoznaczny zapis łuk/ligatura
8A\	8A\	.	(8A\L	.	(8A/L	.	(8c#/L	.	.	.	8c#/	8a\	8A/L	(4b\	.	[4bb\
8r	8r	.	8c#\	.	8c#/	.	8e/	.	.	.	8r	8r	8e/	.	.	.
8E\	8E\	.	8e\	.	8e/	.	8a/	.	.	.	8e/	8cc#\	8c#/	16b\LL	.	16bb\LL]
.	.	.	.	.	.	.	.	.	.	.	.	.	.	16a\	.	16aa\
8r	8r	.	8c#\J)	.	8c#/J)	.	8e/J)	.	.	.	8r	8r	8e/J	16cc#\	.	16ccc#\
.	.	.	.	.	.	.	.	.	.	.	.	.	.	16b\JJ)	.	16bb\JJ
*	*	*	*rep	*	*rep	*	*rep	*	*	*	*	*	*	*	*	*
8AA/	4AA/	.	(8A\L	.	(8A/L	.	(8c#/L	.	.	.	8c#/	8a\	4A/	8a\	.	8aa\
8r	.	.	8c#\	.	8c#/	.	8e/	.	.	.	8r	8r	.	8r	.	8r
4r	4r	.	8e\	.	8e/	.	8a/	.	.	.	4r	4r	4r	8.e/L	.	8.ee\L
.	.	.	8c#\J)	.	8c#/J)	.	8e/J)	.	.	.	.	.	.	.	.	.
*	*	*	*Xrep	*	*Xrep	*	*Xrep	*	*	*	*	*	*	*	*	*
.	.	.	.	.	.	.	.	.	.	.	.	.	.	16e/Jk	.	16ee\Jk
!	!	!	!	!	!	!	!	!	!	!	!	!	!	!	!	!LO:LB:g=original
=3	=3	=3	=3	=3	=3	=3	=3	=3	=3	=3	=3	=3	=3	=3	=3	=3
*	*	*	*tremolo	*	*tremolo	*	*	*	*	*	*	*	*	*	*	*
*	*	*	*2\right	*	*	*	*	*	*	*	*	*	*	*	*	*
8A\	8A\	.	8c#\L	.	(8A/L	.	(8c#/L	.	.	.	4A/	4a\	8A/L	4e/	.	4ee\
8r	8r	.	8e\	.	8c#/	.	8a/	.	.	.	.	.	8e/	.	.	.
8F#\	8F#\	.	8c#\	.	8A/	.	8f#/	.	.	.	4r	4r	8a/	4cc#\	.	4ccc#\
8r	8r	.	8e\J	.	8c#/J)	.	8a/J)	.	.	.	.	.	8e/J	.	.	.
*	*	*	*Xtremolo	*	*	*	*	*	*	*	*	*	*	*	*	*
!	!	!	!LO:TX:t=P:problem=mixed beam	!	!	!	!	!	!	!	!	!	!	!	!	!
8D\	8D\	.	8d\L	.	(8d/L	.	(8d/L	.	.	.	2r	2r	8d/L	4b\	.	4bb\
8r	8r	.	8f#\	.	8B/	.	8b/	.	.	.	.	.	8f#/	.	.	.
8D#X\	8D#X\	.	8f#\	.	8d#X/	.	8f#/	.	.	.	.	.	8d#X/	4b\	.	4bb\
8r	8r	.	8B/J	.	8B/J)	.	8b/J)	.	.	.	.	.	8f#/J	.	.	.
!LO:LB:g=original	!LO:LB:g=original	!	!LO:LB:g=original	!	!LO:LB:g=original	!	!LO:LB:g=original	!	!	!	!	!	!LO:LB:g=original	!	!	!
=4	=4	=4	=4	=4	=4	=4	=4	=4	=4	=4	=4	=4	=4	=4	=4	=4
4E\	4E\	.	8G#/L	.	(8e/L	.	(8g#/L	.	.	.	2r	2r	4e/	(4b\	.	[4bb\
.	.	.	8B/	.	8B/	.	8b/	.	.	.	.	.	.	.	.	.
4BB\	4BB\	.	8A/	.	8d#X/	.	8f#/	.	.	.	.	.	4r	16b\LL	.	16bb\LL]
.	.	.	.	.	.	.	.	.	.	.	.	.	.	16a\	.	16aa\
.	.	.	8B/J	.	8B/J)	.	8b/J)	.	.	.	.	.	.	16g#\	.	16gg#\
.	.	.	.	.	.	.	.	.	.	.	.	.	.	16f#\JJ)	.	16ff#\JJ
!	!	!	!	!	!	!	!	!	!	!	!LO:TX:t=P:problem=mixed beam	!	!	!LO:TX:t=P:problem=mixed beam	!	!
4E\	4E\	.	8G#/L	.	(8G#/L	.	8e/L	.	.	.	8E/L	8e\L	8e\L	8e/L	.	2eeT\
.	.	.	8B/	.	8B/	.	8d/	.	.	.	8b\	8dd\	8b\	8dd\	.	.
4r	4r	.	8A/	.	8A/	.	8c#/	.	.	.	8a\	8cc#\	8a\	8cc#\	.	.
.	.	.	8G#/J	.	8G#/J)	.	8B/J	.	.	.	8g#\J	8b\J	8g#\J	8b\J	.	.
!	!	!	!	!	!	!	!	!	!	!	!	!	!	!LO:LB:g=original	!	!
=5	=5	=5	=5	=5	=5	=5	=5	=5	=5	=5	=5	=5	=5	=5	=5	=5
!	!	!	!	!	!	!	!	!	!	!	!LO:TX:a:t=4.	!LO:TX:a:t=4.	!LO:TX:a:t=4.	!LO:TX:a:t=4.	!	!LO:TX:a:t=4.
4AA/	4AA/	.	8A\L	.	(8A/L	.	(8c#/L	.	4.E\	Re-	00r	00r	00r	00r	.	00r
.	.	.	8c#\	.	8e/	.	8e/	.	.	.	.	.	.	.	.	.
4r	4r	.	8e\	.	8a/	.	8cc#/	.	.	.	.	.	.	.	.	.
.	.	.	8c#\J	.	8e/J)	.	8e/J)	.	8c#\	-gna-	.	.	.	.	.	.
*	*	*	*rep	*	*	*	*	*	*2\right	*	*	*	*	*	*	*
4A\	4A\	.	8A\L	.	(8A/L	.	(8c#/L	.	2c#\	-bit	.	.	.	.	.	.
.	.	.	8c#\	.	8c#/	.	8e/	.	.	.	.	.	.	.	.	.
4r	4r	.	8e\	.	8e/	.	8a/	.	.	.	.	.	.	.	.	.
.	.	.	8c#\J	.	8c#/J)	.	8e/J)	.	.	.	.	.	.	.	.	.
*	*	*	*Xrep	*	*	*	*	*	*	*	*	*	*	*	*	*
=6	=6	=6	=6	=6	=6	=6	=6	=6	=6	=6	=6	=6	=6	=6	=6	=6
4E\	4E\	.	8B\L	.	8B/L	.	(8d/L	.	8B\L	Do-	.	.	.	.	.	.
.	.	.	8d\	.	8e/	.	8e/	.	16d\L	.	.	.	.	.	.	.
.	.	.	.	.	.	.	.	.	16c#\JJ	.	.	.	.	.	.	.
4r	4r	.	8e\	.	8g#/	.	8b/	.	8e\	.	.	.	.	.	.	.
.	.	.	8d\J	.	8e/J	.	8e/J)	.	16d\LL	-mi-	.	.	.	.	.	.
.	.	.	.	.	.	.	.	.	16c#\JJ	.	.	.	.	.	.	.
8A\	8A\	.	8A\L	.	8A/L	.	(8c#/L	.	4.B\	-nus	.	.	.	.	.	.
8r	8r	.	8c#\	.	8c#/	.	8e/	.	.	.	.	.	.	.	.	.
8E\	8E\	.	8e\	.	8e/	.	8a/	.	.	.	.	.	.	.	.	.
*	*	*	*	*	*	*	*	*	*Xtuplet	*	*	*	*	*	*	*
!	!	!	!	!	!	!	!	!	!LO:TUP:a:problem=klamra łukowa	!	!	!	!	!	!	!
8r	8r	.	8c#\J	.	8c#/J	.	8e/J)	.	24A\LL	in	.	.	.	.	.	.
.	.	.	.	.	.	.	.	.	24c#\	.	.	.	.	.	.	.
.	.	.	.	.	.	.	.	.	24B\JJ	.	.	.	.	.	.	.
!	!	!	!	!	!	!	!	!	!LO:LB:g=original	!	!	!	!	!	!	!
=7	=7	=7	=7	=7	=7	=7	=7	=7	=7	=7	=7	=7	=7	=7	=7	=7
4AA/	4AA/	.	8A\L	.	8A/L	.	(8c#/L	.	(4.A\	sae-	.	.	.	.	.	.
.	.	.	8c#\	.	8c#/	.	8e/	.	.	.	.	.	.	.	.	.
4r	4r	.	8e\	.	8e/	.	8a/	.	.	.	.	.	.	.	.	.
.	.	.	8c#\J	.	8c#/J	.	8e/J)	.	8c#\)	.	.	.	.	.	.	.
*	*	*	*tremolo	*	*	*	*	*	*	*	*	*	*	*	*	*
!	!	!	!	!	!	!	!	!LO:HP:b:t=cres	!	!	!	!	!	!	!	!
4A\	4A\	.	8c#\L	.	8A/L	.	8c#/L	<	(4.c#\	.	.	.	.	.	.	.
.	.	.	8e\	.	8c#/	.	8cc#/	.	.	.	.	.	.	.	.	.
4F#\	4F#\	.	8c#\	.	8A/	.	8a 8f#/	.	.	.	.	.	.	.	.	.
.	.	.	8e\J	.	8c#/J	.	8cc#/J	.	8B\)	-cu-	.	.	.	.	.	.
*	*	*	*Xtremolo	*	*	*	*	*	*	*	*	*	*	*	*	*
=8	=8	=8	=8	=8	=8	=8	=8	=8	=8	=8	=8	=8	=8	=8	=8	=8
*-	*-	*-	*-	*-	*-	*-	*-	*-	*-	*-	*-	*-	*-	*-	*-	*-
